X:62
T:Glen of Aherlow
M:C|
L:1/8
Q:120
C:Sean Ryan
R:Reel (Key of Edor)
K:Edor
"Em"~B2 AF BFAF | E3F EDB,2 | ~B2 AF BFAF | "D"DFAF "Em"FEE2 |
~B2 AF BFAF | E3F EDB,2 | B,E ~E2 DEFA |1 "D"~B2 AF "Em"FEE2 :|2 ~B2 AF FEEf |:
"Em"eB ~B2 efge |"D"fd ~d2 Adfd | "Em"eB ~B2 efge | "D"dBAF "Em"FEEf |
eB ~B2 efge | "D"fd ~d2 Adfd | "Em"B3d egfe |1 "D"dBAF "Em"FEEf :|2 "D"dBAF "Em"FEE2|]
